resources/svg/wireless-charging-fill.svg

<svg fill="currentColor" viewBox="0 0 24 24" xmlns="http://www.w3.org/2000/svg"><path d="M3.92887 4.92871L5.34315 6.34298C3.89543 7.7907 3 9.7907 3 11.9998C3 14.209 3.89543 16.209 5.34315 17.6567L3.92887 19.071C2.11925 17.2613 1 14.7613 1 11.9998C1 9.23834 2.11925 6.73834 3.92887 4.92871ZM20.0711 4.92871C21.8808 6.73834 23 9.23834 23 11.9998C23 14.7613 21.8808 17.2613 20.0711 19.071L18.6569 17.6567C20.1046 16.209 21 14.209 21 11.9998C21 9.79121 20.105 7.79162 18.6579 6.34398L20.0711 4.92871ZM13 4.99984V10.9998H16L11 18.9998V12.9998H8L13 4.99984ZM6.75736 7.7572L8.17157 9.17141C7.44771 9.89527 7 10.8953 7 11.9998C7 13.1044 7.44771 14.1044 8.17157 14.8283L6.75736 16.2425C5.67157 15.1567 5 13.6567 5 11.9998C5 10.343 5.67157 8.84298 6.75736 7.7572ZM17.2436 7.75818C18.3288 8.84388 19 10.3435 19 11.9998C19 13.6567 18.3284 15.1567 17.2426 16.2425L15.8284 14.8283C16.5523 14.1044 17 13.1044 17 11.9998C17 10.8958 16.5527 9.89618 15.8294 9.17241L17.2436 7.75818Z"/></svg>

<svg xmlns="http://www.w3.org/2000/svg" viewBox="0 0 24 24" fill="currentColor">
    <g>
        <path fill="none" d="M0 0L24 0 24 24 0 24z"/>
        <path d="M3.929 4.929l1.414 1.414C3.895 7.791 3 9.791 3 12c0 2.21.895 4.21 2.343 5.657L3.93 19.07C2.119 17.261 1 14.761 1 12s1.12-5.261 2.929-7.071zm16.142 0C21.881 6.739 23 9.239 23 12s-1.12 5.262-2.929 7.071l-1.414-1.414C20.105 16.209 21 14.209 21 12s-.895-4.208-2.342-5.656L20.07 4.93zM13 5v6h3l-5 8v-6H8l5-8zM6.757 7.757l1.415 1.415C7.448 9.895 7 10.895 7 12c0 1.105.448 2.105 1.172 2.828l-1.415 1.415C5.672 15.157 5 13.657 5 12c0-1.657.672-3.157 1.757-4.243zm10.487.001C18.329 8.844 19 10.344 19 12c0 1.657-.672 3.157-1.757 4.243l-1.415-1.415C16.552 14.105 17 13.105 17 12c0-1.104-.447-2.104-1.17-2.827l1.414-1.415z"/>
    </g>
</svg>
